X:1
T:Black Socks
M:6/8
L:1/8
K:C
 d3 B2 B| G^FG AGE| DGA BcB| BA_A =A3| d3 B2 A| G^FG AGE| DGA BcB|\
 AE^F G3|
